X:370
T: ACH WENN DOCH IMMER KIRMES WAER
N: E0997
O: Europa, Mitteleuropa, Deutschland, Sachsen
R: Tanz - Lied, Reigen, Kirmes
M: 3/4
L: 1/8
K: F
FFG | A3BGA | F2z
AAB | c3dBc | A4z2 |
FAc2c2 | fdc2c
F | FGA2A2 | G2F2z2 |
FAc2c2 | fdc2c
F | FGA2A2 | G2F2z2 |
F2F2G2 | A3GF2 |
A2A2B2 | c3BA2 |
FAc2c2 | fdcBc2 |
FAc2c2 | fdcBc2 |
FGA2A2 | G2F

